!!!!SEGMENT: pl-wn--mus-iii-105-719-2--004_zelenski-wladyslaw--25-preludyi-op-38-20-allegro-maestoso.krn
!!!cenid: 18xx:3753
!!!COM: Żeleński, Władysław
!!!COM-rismID: pe41024455
!!!CDT:
!!!CNT:
!!!GTL: 25 preludyi op. 38
!!!OTL: 20. Allegro maestoso
!!!PDT: 1881
!!!AGN:
!!!SMS-siglum: PL-Wn
!!!SMS-shelfmark: Mus.III.105.719/2
!!!SMS-shelfwork: 004 G
!!!SMS-variant:
!!!SMS-altvar:
!!!NIFC-rismSourceID:
!!!NIFC-islandoraID:
!!!URL-pdf-islandora:
!!!URL-scan: https://polona.pl/item/25-preludyi-2-3-i-4-glosowych-na-organ-lub-fisharmonike-do-uzytku-organistow-i,ODE1NjEwNDA/2/#info:metadata @EN{Scan on Polona} @PL{Skany w portalu Polona}
!!!ONB-nifc:
!!!AIN: 2 organ
!!!key: e
**kern	**fing	**dynam	**kern	**fing	**dynam
*part2	*part2	*part2	*part1	*part1	*part1
*staff2	*	*	*staff1	*	*
*I"Organo	*	*	*I"Organo	*	*
*I'org	*	*	*I'org	*	*
*ICklav	*	*	*ICklav	*	*
*Iorgan	*	*	*Iorgan	*	*
*clefF4	*	*	*clefG2	*	*
*k[f#]	*	*	*k[f#]	*	*
*e:	*	*	*e:	*	*
*M4/4	*	*	*M4/4	*	*
*met(c)	*	*	*met(c)	*	*
=1	=1	=1	=1	=1	=1
*^	*	*	*^	*	*
!LO:N:vis=2	!	!	!	!LO:TX:a:B:t=Allegro maestoso	!	!	!
4EE/	[2EE\	.	.	[2e/	[2G\ [2B	1 2 5	ff
[<4BB/	.	2	.	.	.	.	.
4BB/] 4E	4EE\]	1	.	8e/L]	8G\] 8B]	.	.
.	.	.	.	(>8d#X/	4.ryy	2	.
4r	4ryy	.	.	8e/	.	.	.
.	.	.	.	8f#/J	.	.	.
=2	=2	=2	=2	=2	=2	=2	=2
!LO:N:vis=2	!	!	!	!	!	!	!
4EE/	[2EE\	.	.	[2g/	[2B\ [2e	1 3 5	.
[<4BB/	.	.	.	.	.	.	.
4BB/] 4E	4EE\]	.	.	8g/L])	8B\] 8e]	.	.
.	.	.	.	(>8f#/	4.ryy	2	.
4r	4ryy	.	.	8g/	.	.	.
.	.	.	.	8a/J	.	.	.
=3	=3	=3	=3	=3	=3	=3	=3
!LO:N:vis=2	!	!	!	!	!	!	!
4E/	2.E\	5	.	2.b/)	2.e\ 2.g	.	.
(4G/	.	2	.	.	.	.	.
2B/	.	1	.	.	.	.	.
.	4D#X\	4	.	(>8b/L 8gg	4ryy	1 5	.
.	.	.	.	8a/J 8ff#	.	1 4	.
*	*	*	*	*v	*v	*	*
=4	=4	=4	=4	=4	=4	=4
!LO:N:vis=2	!	!	!	!	!	!
4E/	[2E\	5	.	2.g/) 2.ee	1 3	.
[<4G/	.	3	.	.	.	.
2G/] 2B	2E\_	1	.	.	.	.
.	.	.	.	(>4g/ 4b	1 4	.
=5	=5	=5	=5	=5	=5	=5
*	*	*	*	*^	*	*
4A/	2E\]	2	.	[2cc/	[1f#	2 5	.
4F#/	.	3	.	.	.	.	.
[2B/	2D#X\	4 1	.	8cc/L])	.	.	.
.	.	.	.	(8cc/	.	5	.
.	.	.	.	8b/	.	4	.
.	.	.	.	8a/J	.	3	.
=6	=6	=6	=6	=6	=6	=6	=6
!	!	!	!	!LO:N:vis=2.	!	!	!
4B/]	2E\	5	.	[2g/)	4.f#\]	4	.
4G/	.	2	.	.	.	.	.
.	.	.	.	.	(8d#X\	2	.
2B/	4ryy	1	.	8g/L]	[2e\)	1	.
.	.	.	.	8g/	.	3	.
.	4D\	4	.	8a/	.	4	.
.	.	.	.	8b/J	.	5	.
=7	=7	=7	=7	=7	=7	=7	=7
4A/)	4C\	5 1	.	[1f#	(>1e_	.	.
(4A/	(4C\	2 2	.	.	.	.	.
4B/	4BB\	1	.	.	.	.	.
4c/	4AA\	2	.	.	.	.	.
=8	=8	=8	=8	=8	=8	=8	=8
[2B/	[2BB\	1	.	2f#/_	(4e\]	.	.
.	.	.	.	.	4c#X\	2	.
8B/])	8BB\])	.	.	8f#/L]	8d#X\))	3	.
8r	8r	.	.	(8a/	8r	5	.
4r	4r	.	.	8g/	4r	4	.
.	.	.	.	8f#/J	.	3	.
=9	=9	=9	=9	=9	=9	=9	=9
*ped	*	*	*	*	*	*	*
!LO:N:vis=2	!	!	!	!	!	!	!
4EE/	[2EE\	.	.	[2e/)	[2G\ [2B	5	.
[<4BB/	.	.	.	.	.	.	.
4BB/] 4E	4EE\]	.	.	8e/L]	8G\] 8B]	.	.
.	.	.	.	(>8d#X/	4.ryy	.	.
4r	4ryy	.	.	8e/	.	.	.
.	.	.	.	8f#/J	.	.	.
=10	=10	=10	=10	=10	=10	=10	=10
!LO:N:vis=2	!	!	!	!	!	!	!
4EE/	[2EE\	.	.	[2g/	[2B\ [2e	.	.
[4BB/	.	.	.	.	.	.	.
*Xped	*	*	*	*	*	*	*
4BB/] 4E	4EE\]	.	.	8g/L])	8B\] 8e]	.	.
.	.	.	.	(>8f#/	4.ryy	.	.
4r	4ryy	.	.	8g/	.	.	.
.	.	.	.	8a/J	.	.	.
=11	=11	=11	=11	=11	=11	=11	=11
!LO:N:vis=2	!	!	!	!	!	!	!
(4E/	2.E\	4	.	2.b/)	2.e\ 2.g	.	.
4G/	.	.	.	.	.	.	.
2B/	.	.	.	.	.	.	.
.	4D\	5	.	(>8b/L 8gg	4ryy	.	.
.	.	.	.	8a/J 8ff#	.	.	.
*	*	*	*	*v	*v	*	*
!LO:LB:g=original	!	!	!	!	!	!
=12	=12	=12	=12	=12	=12	=12
!LO:N:vis=2	!	!	!	!	!	!
4C#X/	[2C#\	4	.	2.g/) 2.ee	.	.
[<4G/	.	.	.	.	.	.
(2G/] 2B	2C#\]	.	.	.	.	.
.	.	.	.	([>4e/ 4g	.	.
=13	=13	=13	=13	=13	=13	=13
*	*	*	*	*^	*	*
4.A/)	[1D	5	.	[2f#/)	4e\]	.	.
.	.	.	.	.	4c#X\	2	.
8G/	.	.	.	.	.	.	.
2F#/	.	.	.	8f#/L]	2d\	1	.
.	.	.	.	8a/	.	3	.
.	.	.	.	(8b/	.	.	.
.	.	.	.	8cc/J	.	.	.
=14	=14	=14	=14	=14	=14	=14	=14
4G#X/	1D]	.	.	[2b/	[1e	1 4	.
4E/	.	.	.	.	.	.	.
4G#/	.	.	.	8b/L]	.	.	.
.	.	.	.	8a/	.	.	.
[4B/	.	.	.	8g#X/	.	.	.
.	.	.	.	8b/J	.	.	.
=15	=15	=15	=15	=15	=15	=15	=15
4B/]	2.C\	.	.	4.cc/	2.e\_	.	.
4G#X/	.	.	.	.	.	.	.
.	.	.	.	8b/	.	4	.
[2A/	.	.	.	8a/L	.	5	.
.	.	.	.	8g/	.	.	.
.	4C#X\	.	.	8f#/	4e\]	2	.
.	.	.	.	8g/J	.	.	.
=16	=16	=16	=16	=16	=16	=16	=16
4A/]	1D	.	.	4f#/	4d\	1 3	.
4E/	.	.	.	4g/	4c#X\	2 4	.
4F#/	.	.	.	4a/	2cn\	1 5	.
4A/)	.	.	.	8e/L	.	3	.
.	.	.	.	8f#/J	.	4	.
=17	=17	=17	=17	=17	=17	=17	=17
*ped	*	*	*	*	*	*	*
!LO:N:vis=2	!	!	!	!	!	!	!
4GG/	[2GG\	.	.	[2g/)	[2B\ [2d	.	.
[<4D/	.	.	.	.	.	.	.
4D/] 4G	4GG\]	.	.	8g/L]	8B\] 8d]	.	.
.	.	.	.	(8f#/	8r	2	.
4r	4ryy	.	.	8g/	4r	.	.
.	.	.	.	8a/J	.	.	.
=18	=18	=18	=18	=18	=18	=18	=18
!LO:N:vis=2	!	!	!	!	!	!	!
4GG/	[2GG\	.	.	[2b/	[2d\ [2g	.	.
[<4D/	.	.	.	.	.	.	.
4D/] 4G	2GG\_>	.	.	8b/L])	8d\] 8g]	.	.
.	.	.	.	(8a/	4.ryy	2	.
4r	.	.	.	8b/	.	.	.
.	.	.	.	8cc/J	.	.	.
*Xped	*	*	*	*	*	*	*
=19	=19	=19	=19	=19	=19	=19	=19
*	*^	*	*	*	*	*	*
1r	2GG/]	[4GG\	.	.	[<1d) [1dd	(4a\	2	.
.	.	4r	.	.	.	4a#X\	3	.
.	2ryy	8GG\L]	.	.	.	4b\	4	.
.	.	8FF#\	.	.	.	.	.	.
.	.	8GG\	.	.	.	4f#\	2	.
.	.	8AA\J	.	.	.	.	.	.
*v	*v	*v	*	*	*	*	*	*
=20	=20	=20	=20	=20	=20	=20
[2BB\	.	.	4g/) 4dd]	2d\_	2	.
.	.	.	(4a/ 4cc	.	3 5	.
8BB\L]	.	.	4b/	2d\_ [2g	2 4	.
8AA\	.	.	.	.	.	.
8BB\	.	.	4dd/)	.	.	.
8C\J	.	.	.	.	.	.
=21	=21	=21	=21	=21	=21	=21
*^	*	*	*	*	*	*
*ped	*	*	*	*	*	*	*
!LO:N:vis=2	!	!	!	!	!	!	!
4D/	[>2D\	.	.	[2a/	2d\_ 2g]	.	.
[<4AA/	.	.	.	.	.	.	.
4AA/] 4D]	4DD\	.	.	8a/L]	8d\] 8f#	.	.
.	.	.	.	(8g#X/	8r	2	.
4r	4ryy	.	.	8a/	4r	.	.
.	.	.	.	8b/J	.	.	.
=22	=22	=22	=22	=22	=22	=22	=22
!LO:N:vis=2	!	!	!	!	!	!	!
4AA/	[2AA\	.	.	[2cc/	[2e\ [2a	.	.
4E/	.	.	.	.	.	.	.
4E/ 4A	2AA\_	.	.	8cc/L])	8e\] 8a]	.	.
.	.	.	.	(8b/	8r	2	.
4r	.	.	.	8cc/	4r	.	.
.	.	.	.	8dd/J	.	.	.
*Xped	*	*	*	*	*	*	*
!LO:LB:g=original	!	!	!	!	!	!	!
=23	=23	=23	=23	=23	=23	=23	=23
*	*^	*	*	*	*	*	*
1r	4AA\]	[<2AA/	.	.	[<1e) [1ee	(4b\	.	.
.	4r	.	.	.	.	4dd\	.	.
.	8AA\L]	2ryy	.	.	.	4cc\	.	.
.	8GG#X\	.	.	.	.	.	.	.
.	8AA\	.	.	.	.	4g#X\	.	.
.	8BB\J	.	.	.	.	.	.	.
*v	*v	*v	*	*	*	*	*	*
=24	=24	=24	=24	=24	=24	=24
[<2C\	.	.	[4a/) 4ee]	2e\]	.	.
.	.	.	4b/ (4dd	.	.	.
8C\L]	.	.	4cc/	2e\ 2a]	.	.
8BB\	.	.	.	.	.	.
8C\	.	.	4ee/)	.	.	.
8D\J	.	.	.	.	.	.
=25	=25	=25	=25	=25	=25	=25
*^	*	*	*	*	*	*
!LO:N:vis=2	!	!	!	!	!	!	!
4E/	[>2E\	.	.	[2b/	[2e\ 2a	.	.
[<4BB/	.	.	.	.	.	.	.
4BB/] 4E]	4EE\	.	.	8b/L]	8e\] 8g	.	.
.	.	.	.	(8a#X/	8r	.	.
4r	4ryy	.	.	8b/	4r	.	.
.	.	.	.	8cc#X/J	.	.	.
=26	=26	=26	=26	=26	=26	=26	=26
!LO:N:vis=2	!	!	!	!	!	!	!
4BB/	[2BB\	.	.	[2dd/	[2f#\ [2b	.	.
[<4F#/	.	.	.	.	.	.	.
[2B/	4BB\] 4F#]	.	.	8dd/L])	8f#\] 8b]	.	.
.	.	.	.	(8cc#X/	8r	.	.
.	4r	.	.	8dd/	4r	.	.
.	.	.	.	8ee/J	.	.	.
=27	=27	=27	=27	=27	=27	=27	=27
8B/L]	1r	.	.	4ff#/	1f#	1 5	.
8G#X/	.	.	.	.	.	.	.
8A#X/	.	.	.	4ee/	.	4	.
8c#X/J	.	.	.	.	.	.	.
8B/L	.	.	.	4dd/	.	3	.
8A#/	.	.	.	.	.	.	.
8B/	.	.	.	4b/	.	2	.
8d/J	.	.	.	.	.	.	.
=28	=28	=28	=28	=28	=28	=28	=28
8G#X/L	1r	.	.	4ee/	1e	.	.
8F#/	.	.	.	.	.	.	.
8G#/	.	.	.	4dd/	.	.	.
8B/J	.	.	.	.	.	.	.
8A/L	.	.	.	4cc/	.	.	.
8G#/	.	.	.	.	.	.	.
8A/	.	.	.	4a/	.	.	.
8c/J	.	.	.	.	.	.	.
=29	=29	=29	=29	=29	=29	=29	=29
8F#/L	1r	.	.	4dd/	[1d	.	.
8E/	.	.	.	.	.	.	.
8F#/	.	.	.	4cc/	.	.	.
8A/J	.	.	.	.	.	.	.
8Gn/L	.	.	.	4b/	.	.	.
8F#/	.	.	.	.	.	.	.
8G/	.	.	.	4g/)	.	.	.
!LO:TX:b:i:t=NB.	!	!	!	!	!	!	!
8BB/J	.	.	.	.	.	.	.
*v	*v	*	*	*	*	*	*
=30	=30	=30	=30	=30	=30	=30
8C/L	.	.	[2e/	8d\L]	5	.
8D/	.	.	.	(8G#X\	2	.
8C/	.	.	.	8A\	1	.
8BB/J	.	.	.	8B\J	2	.
8AA/L	.	.	8e/L]	[2c\)	1	.
8BB/	.	.	[8e/	.	2	.
8AA/	.	.	8f#/	.	3	.
8GG/J	.	.	8g/J	.	4	.
*	*	*	*v	*v	*	*
=31	=31	=31	=31	=31	=31
2FF#/	.	.	2c/] 2e] 2a	.	.
*ped	*	*	*	*	*
((2EE/ 2E	.	.	(2c/ [2f# [2a 2cc	.	fff
=32	=32	=32	=32	=32	=32
2.DD#X/)) 2.D#X	.	.	2.B;/) 2.f#] 2.a] 2.b	.	.
4r	.	.	4B/	.	.
=33	=33	=33	=33	=33	=33
*^	*	*	*^	*	*
*ped	*	*	*	*	*	*	*
!LO:N:vis=2	!	!	!	!	!	!	!
4EE/	[2EE\	.	.	[2e/	[2G\ [2B	.	.
[4BB/	.	.	.	.	.	.	.
4BB/] 4E	4EE\]	.	.	8e/L]	8G\] 8B]	.	.
.	.	.	.	(8d#X/	8r	.	.
4r	4ryy	.	.	8e/	4r	.	.
.	.	.	.	8f#/J	.	.	.
=34	=34	=34	=34	=34	=34	=34	=34
!LO:N:vis=2	!	!	!	!	!	!	!
4EE/	[2EE\	.	.	[2g/)	[2B\ [2e	.	.
[<4BB/	.	.	.	.	.	.	.
4BB/] 4E	4EE\]	.	.	8g/L]	8B\] 8e]	.	.
.	.	.	.	(8f#/	8r	.	.
*Xped	*	*	*	*	*	*	*
4r	4ryy	.	.	8g/	4r	.	.
.	.	.	.	8a/J	.	.	.
!LO:LB:g=original	!	!	!	!	!	!	!
=35	=35	=35	=35	=35	=35	=35	=35
!LO:N:vis=2	!	!	!	!	!	!	!
(4E/	2.E\	.	.	2b/)	2.e\ 2.g	.	.
4G/	.	.	.	.	.	.	.
2B/	.	.	.	4ryy	.	.	.
.	4D#X\	.	.	(>8b/L 8gg	4ryy	.	.
.	.	.	.	8a/J 8ff#	.	.	.
*	*	*	*	*v	*v	*	*
=36	=36	=36	=36	=36	=36	=36
!LO:N:vis=2	!LO:N:vis=2	!	!	!	!	!
4E/	[<4E\	.	.	2.g/) 2.ee	.	.
4G/	[<4G\	.	.	.	.	.
2B/	[2E\] 2G]	.	.	.	.	.
.	.	.	.	(>4g/ 4b	.	.
=37	=37	=37	=37	=37	=37	=37
*	*	*	*	*^	*	*
4A/	2E\]	.	.	[2cc/)	1f#	.	.
4F#/	.	.	.	.	.	.	.
[2B/)	2D#X\	.	.	8cc/L]	.	.	.
.	.	.	.	(8cc/	.	5	.
.	.	.	.	8b/	.	4	.
.	.	.	.	8a/J	.	5	.
=38	=38	=38	=38	=38	=38	=38	=38
4B/]	1Dn	5	.	[2g#X/)	1fn	1 3	.
(4dn/	.	1	.	.	.	.	.
4B/	.	.	.	8g#/L]	.	.	.
.	.	.	.	(8g#/	.	2	.
[4G#X/	.	2	.	8b/	.	3	.
.	.	.	.	8g#/J	.	2	.
=39	=39	=39	=39	=39	=39	=39	=39
4G#/]	1C	5	.	4.ee/	[1e	.	.
4B/	.	1	.	.	.	.	.
.	.	.	.	8dd/	.	.	.
4A/	.	2	.	8cc/L	.	3	.
.	.	.	.	8b/	.	4	.
4E/	.	.	.	8a/	.	.	.
.	.	.	.	8g/J	.	.	.
=40	=40	=40	=40	=40	=40	=40	=40
2F#/	2AA\	5 2	.	2cc/	2e\]	1 5	.
2A/)	2BB\	4 1	.	2b/)	2d#X\	2 5	.
=41	=41	=41	=41	=41	=41	=41	=41
!	!	!	!	!LO:TX:a:i:t=poco sostenuto	!	!	!
!LO:N:vis=2	!	!	!	!	!	!	!LO:DY:i:t=meno forte
4EE/	[2EE\	.	.	[2e/	[2G#X\	1 3	mf
[<4BB/	.	.	.	.	.	.	.
4BB/] 4E	4EE\]	.	.	8e/L]	8G#\]	.	.
.	.	.	.	(8d#X/	8r	2	.
4r	4ryy	.	.	8e/	4r	.	.
.	.	.	.	8f#/J	.	.	.
=42	=42	=42	=42	=42	=42	=42	=42
!LO:N:vis=2	!	!	!	!	!	!	!
4CC#X/	[2CC#\	.	.	[2g#X/)	[2G#X\ [2e	.	.
[<4GG#X/	.	.	.	.	.	.	.
4GG#/] 4C#X	4CC#\]	.	.	8g#/L]	8G#\] 8e]	.	.
.	.	.	.	(8f#/	8r	2	.
4r	4ryy	.	.	8g#/	4r	.	.
.	.	.	.	8a/J	.	.	.
=43	=43	=43	=43	=43	=43	=43	=43
!LO:N:vis=2	!	!	!	!	!	!	!
4GG#X/	[2GG#\	.	.	2.b/)	2.d#X\	.	.
([<4D#X/	.	.	.	.	.	.	.
2D#/] [2G	4GG#\]	.	.	.	.	.	.
.	4ryy	.	.	(8g#X/L	4B\	1 5	.
.	.	.	.	8f#/J	.	4	.
*	*	*	*	*v	*v	*	*
=44	=44	=44	=44	=44	=44	=44
*	*^	*	*	*	*	*
4G/]	[2C/	[<1AA	3	.	[1c#X [1e	.	.
8F#/L	.	.	2	.	.	.	.
8E#X/J	.	.	1	.	.	.	.
4F#/	2C/_	.	2	.	.	.	.
4G#X/	.	.	1	.	.	.	.
*	*v	*v	*	*	*	*	*
=45	=45	=45	=45	=45	=45	=45
*	*	*	*	*^	*	*
4C/]) 4A	1AA]	1	.	1e_	2c#\]	.	.
(4D#X/	.	2	.	.	.	.	.
4E/)	.	1	.	.	2cn\	.	.
(4F#/	.	1	.	.	.	.	.
*v	*v	*	*	*	*	*	*
*	*	*	*v	*v	*	*
=46	=46	=46	=46	=46	=46
1EE) 1G#X	.	.	1B) 1e]	.	.
==	==	==	==	==	==
*-	*-	*-	*-	*-	*-
!!!system-decoration: {(s1,s2)}
!!!RDF**kern: > = above
!!!RDF**kern: < = below
!!!ENC: Filip Voros
!!!END: 2022-03-12
!!!ENC: Natalia Wrzos
!!!END: 2022-03-16
